!!!OTL: Bajabula Bonke
!!!XEN: I Became Ill
!!!CNT: African -- sub-Saharan -- Xhosa
**kern
*k[f#c#]
*M4/4
*MM60
8b
8b
8b
8b
8b
=1
8a
8b
(16a
16g)
[8a
8a]
8g
8g
8d
=2
8e
[8e
8e]
[8d
8d]
8B
4B
=3
8r
8e
8d
[8e
4.e]
8d
=4
4B
8r
!! Repeat from the beginning.
8b
8b
8b
8b
8b
=5
8a
8b
(16a
16g)
[8a
8a]
8g
8g
8d
=6
8e
[8e
8e]
[8d
8d]
8B
4B
=7
8r
8e
8d
[8e
4.e]
8d
=8
4B
8r
!! Continuing.
8b
8b
8b
8b
[8a
=9
4.a]
8e
4f#
8g
8d
=10
8e
[8e
8e]
[8d
4d]
4B
=11
8r
[8e
8e]
8A
4A
8g
8d
=12
8e
[8e
8e]
[8d
4d]
4B
=13
8r
[8e
8e]
8A
4A
8g
8d
=14
8e
[8e
8e]
[8d
8d]
8b
8b
8b
!! Repeat the following section.
=15
(8a
8b)
(16a
16g)
[8a
8a]
8g
8g
8d
=16
8e
[8e
8e]
[8d
8d]
8B
4B
=17
8r
8e
8d
[8e
4.e]
8d
=18
4B
8r
8b
8b
8b
8b
8b
=19
(8a
8b)
(16a
16g)
[8a
8a]
8g
8g
8d
=20
8e
8e
8e
[8d
4d]
4B
!! page 97
=21
8r
8e
8d
[8e
4.e]
8d
=22
4B
8r
8b
8b
8b
8b
[8a
=23
4.a]
8e
4e
8g
8d
=24
8e
[8e
8e]
[8d
4d]
4B
=25
8r
[8e
8e]
8A
4A
8g
8d
=26
8e
[8e
8e]
[8d
4d]
4B
=27
8r
[8e
8e]
8A
4A
8g
8d
!! First ending.
=28
8e
[8e
8e]
[8d
8d]
[8B
8B]
8a
!! Repeating.
=29
(8a
8b)
(16a
16g)
[8a
8a]
8g
8g
8d
=30
8e
[8e
8e]
[8d
8d]
8B
4B
=31
8r
8e
8d
[8e
4.e]
8d
=32
4B
8r
8b
8b
8b
8b
8b
=33
(8a
8b)
(16a
16g)
[8a
8a]
8g
8g
8d
=34
8e
8e
8e
[8d
4d]
4B
!! page 97
=35
8r
8e
8d
[8e
4.e]
8d
=36
4B
8r
8b
8b
8b
8b
[8a
=37
4.a]
8e
4e
8g
8d
=38
8e
[8e
8e]
[8d
4d]
4B
=39
8r
[8e
8e]
8A
4A
8g
8d
=40
8e
[8e
8e]
[8d
4d]
4B
=41
8r
[8e
8e]
8A
4A
8g
8d
!! Second ending.
=42
8e
[8e
8e]
[8d
4d]
4B;
==
*-
!!!OPR: Miriam Makeba, "The World of African Song"
!!!PPP: Chicago
!!!PPR: Quadrangle Press (12 East Delaware Place)
!!!PDT: 1971///
!!!PPG: 96-97
!!!ENC: David Huron
!!!EMD: 1998/9/29/ Paul von Hippel updated this file in the following ways:
!!!EMD:  (1) changed the representation of slurs from curly braces to parentheses 
!!!EMD:  (2) changed freeform comments into reference records and tandem interpretations
!!!EMD:  (3) changed final barline from triple (===) to double (==)
!!!EMD:  (4) added key signature from printed source
!!!EEV: Version 2.0
